src/public/images/half-star.svg

<svg width="30" height="28" viewBox="0 0 30 28" fill="none" xmlns="http://www.w3.org/2000/svg">
<path fill-rule="evenodd" clip-rule="evenodd" d="M15 22.3086V0C15.3982 2.22194e-05 15.7964 0.227787 15.9485 0.683295L18.8188 9.27988C18.955 9.68798 19.3371 9.96318 19.7673 9.96318H28.9967C29.972 9.96318 30.3704 11.2167 29.574 11.7797L22.1546 17.0254C21.7945 17.28 21.6437 17.7404 21.7833 18.1587L24.6283 26.6793C24.9343 27.5958 23.8915 28.3704 23.1025 27.8125L15.5772 22.492C15.4043 22.3697 15.2021 22.3086 15 22.3086Z" fill="#A7A7A7"/>
<path fill-rule="evenodd" clip-rule="evenodd" d="M15 22.3075V1.82041e-08C14.6017 -7.43443e-05 14.2034 0.227676 14.0513 0.68325L11.1806 9.27966C11.0443 9.68774 10.6623 9.96291 10.2321 9.96291L1.00173 9.96291C0.0263844 9.96291 -0.371954 11.2165 0.424486 11.7795L7.84443 17.0247C8.20455 17.2793 8.35539 17.7397 8.2157 18.158L5.37048 26.6781C5.06441 27.5946 6.1072 28.3692 6.89623 27.8114L14.4226 22.491C14.5956 22.3686 14.7978 22.3075 15 22.3075Z" fill="#FFCC47"/>
</svg>

<svg xmlns="http://www.w3.org/2000/svg" width="30" height="28" fill="none" fill-rule="evenodd" xmlns:v="https://vecta.io/nano"><path d="M15 22.309V0a.98.98 0 0 1 .948.683l2.87 8.597a1 1 0 0 0 .948.683h9.229c.975 0 1.374 1.254.577 1.817l-7.419 5.246a1 1 0 0 0-.371 1.133l2.845 8.521c.306.916-.737 1.691-1.526 1.133l-7.525-5.32a1 1 0 0 0-.577-.183z" fill="#a7a7a7"/><path d="M15 22.308V0a.98.98 0 0 0-.949.683L11.181 9.28a1 1 0 0 1-.948.683h-9.23c-.975 0-1.374 1.254-.577 1.817l7.42 5.245a1 1 0 0 1 .371 1.133l-2.845 8.52c-.306.916.737 1.691 1.526 1.133l7.526-5.32a1 1 0 0 1 .577-.183z" fill="#ffcc47"/></svg>
